X:613
%%etbk:tnset id:357,pos:1,rep:3x,ant:
%%etbk:pldat 2016-01-27T15:54,2016-01-04T18:25,2016-01-02T13:12,2015-12-03T18:32,2015-12-02T16:15,2015-12-01T15:46,2015-11-30T18:34,2015-11-29T13:48,2015-11-26T18:01,2015-11-04T15:22,2015-11-03T15:46,2015-11-02T18:31,2015-11-01T15:48,2015-10-31T16:47,2015-10-28T15:16,2015-10-25T15:06,2015-10-24T14:01,2015-10-22T18:07,2015-10-21T17:22,2015-10-14T17:33,2015-10-08T18:06,2015-10-07T15:29,2015-10-06T16:06,2015-10-03T17:13,2015-09-30T15:11,2015-09-28T18:04,2015-08-30T16:10,2015-08-28T18:17,2015-08-24T19:05,2015-08-19T16:19,2015-08-18T15:06,2015-08-15T16:08,2015-08-11T15:41,2015-08-10T18:06,2015-08-09T16:31,2015-07-31T17:05,2015-07-29T16:37,2015-07-27T17:57,2015-07-25T13:36,2015-07-24T18:11,2015-07-18T17:09,2014-12-11T18:02,2014-10-19T15:30,2014-10-13T18:25,2014-10-12T14:14,2014-10-10T15:50,2014-10-09T09:40,2014-10-07T14:56,2014-10-05T14:59,2014-10-03T15:32,2014-09-30T12:09
T:Craigie Hills
Z: Piano Box Version by Martin Fleischmann
H: Created 2014-09-30 /  Modified 2016-01-27
M:4/4
L:1/8
R: song
K: Cmaj
V:M1 clef=treble 
V:M2 clef=treble 
%            End of header, start of tune body:
[V:M1]!5!ed|"C"!3!cAGA!3!c3!4!d|!3!e2ed e2g2| "F"!5!a2-a!4!g !5!a2!4!e2|"am"!3!d!2!c !1!A4-Ag|
[V:M2]z2|"C"[E8C]|-[E8C]| "F"[F6C] [E2C]|"am"[A,8C]|
[V:M1]"F"!3!a2-ae"G"g2a2|"am"!5!c'4"G"bag2| "C"!3!e2ede2g2| "F"a6ga|
[V:M2]"F"[F4C]"G"[G4D]|"am"[E4A]"G"[G4D]| "C"[E4C] EDE2| "F"[F8C]|
[V:M1]"C"!4!c'3d' c'ag!3!a|"F"-a4c'2ag|"C"!1!e2 !4!ed cded|cG "am"A4GA|
[V:M2]"C"[G8C]|"F"[F6C] GF|"C"[E4C] EDC2| "am"[A,8C]|
[V:M1]"F"!3!c2!1!cd "G"!3!eg3| "am"!5!a2ga "C"!3!e2!5!ed|"F"c2cd "G"c2B2| "C"c8|
[V:M2]"F"[F4C]"G"[G4D]|"am"[E4A]"C"[E4C]|"F"[A,4C]"G"C2B,2| "C"[G,8C]|


